X:5840
T:Gan Ainm
R:Slip Jig
S:
H:
N:
D:Irish Dancing Tape (P. Acc)
Z:Adrian Scahill
M:9/8
L:1/8
K:G
gfg efg dcB|^deA A/2^A/2BG FED|gfg efg dcB|1 c2B AGF GB/2c/2d:|2 c2B AGF GA^A||\
B2c dcB dcB|e2A A/2^A/2BG FED|B2c dcB dcB|c2B AGF G3:||


